X:1
T:Jesus Is Coming Again
T:Jesus Is Coming Again
T:William Thomas Dale
T:R. L. Harris, 1901
T:Public Domain Courtesy of the Cyber Hymnal™
T:Public Domain Courtesy of the Cyber Hymnal™
C:William Thomas Dale
Z:Public Domain
Z:Courtesy of the Cyber Hymnal™
%%score ( 1 2 ) ( 3 4 )
L:1/8
Q:1/4=100
M:4/4
K:F
V:1 treble 
V:2 treble 
V:3 bass 
V:4 bass 
V:1
 [A,C][CF] | [FA]2 [FA][FB] [FA][EG]F[FA] | [Fc]2 [Fc][Fd] [Fc]2 F[FG] | %3
w: 1.~Spread the|news of the com- ing of the|Sav- ior a- gain, For His|
w: 2.~Keep your|lamps trimmed and burn- ing, for the|time draw- eth nigh, When the|
w: 3.~Howl and|weep, all ye na- tions who have|gone far a- stray, For the|
w: 4.~Lo! His|signs are now ga- thering, as the|light on us dawns, For the|
 [FA]2 [Fc][Fc] [Fd][Fc][Fc][FA] | [EG]6 [A,C][CF] | [FA]2 [FA][FB] [FA][FG]F[FA] | %6
w: signs are ap- pear- ing in the|skies; Shout, ye|bur- dened in spir- it, who have|
w: saints that go weep- ing shall re-|joice; For we’ll|mount up to meet Him as He|
w: time sure- ly com- eth by and|by, When your|vain, emp- ty plea- sures shall like|
w: bride’s dressed in lin- en clean and|white; And the|Bride- groom is com- ing whom she’s|
 [Fc]2 [Fc][Fd] [Fc]2 [FA][FB] | [Fc][Fd][Fc][GB] [EG]2 [EG]2 | F6 ||"^Refrain" [CA][CB] | %10
w: tra- vailed in pain, For He|comes to wipe your weep- ing|eyes.||
w: comes in the sky, When we|hear the por- ter’s wel- come|voice.|Rise and|
w: clouds flee a- way, When you|hear the shout- ing in the|sky.||
w: looked for so long, With ten|thou- sand, thou- sand saints in|light.||
 [Fc]2 [Af][Af] [Af][Af][Ae][Fd] | c6 F[FG] | [FA]2 [Fc][Fc] [Fd][Fc][Fc][FA] | G6 [CA][CB] | %14
w: ||||
w: shout, Hal- le- lu- jah! For He|comes, Rise and|shout, Hal- le- lu- jah! For He|comes; Rise and|
w: ||||
w: ||||
 [Fc]2 [Af][Af] [Af][Af][Ae][Fd] | c6 F[FG] | [FA]2 [Fc][Fd] [Fc][FA][EA][EG] | z2 x8 |] %18
w: ||||
w: shout, Hal- le- lu- jah! For He|comes, And we’ll|all go to meet Him by and||
w: ||||
w: ||||
V:2
 x2 | x6 F x | x6 F x | x8 | x8 | x6 F x | x8 | x8 | F6 || x2 | x8 | (F2 EE F2) F x | x8 | %13
 (E2 EE E2) x2 | x8 | (F2 EE F2) F x | x8 | F6 DD C2 |] %18
V:3
 F,[F,A,] | [F,C]2 [F,C][F,D] [F,C][F,B,][F,A,]F, | [F,A,]2 [F,A,][F,B,] [F,A,]2 [F,A,][F,B,] | %3
w: ~ ~|~ ~ ~ ~ ~ ~ ~|~ ~ ~ ~ ~ ~|
 [F,C]2 [F,A,][F,A,] [F,B,][F,A,][F,A,][F,C] | [C,C]6 F,[F,A,] | %5
w: ~ ~ ~ ~ ~ ~ ~|~ ~ ~|
 [F,C]2 [F,C][F,D] [F,C][F,B,][F,A,]F, | [F,A,]2 [F,A,][F,B,] [F,A,]2 F,[F,G,] | %7
w: ~ ~ ~ ~ ~ ~ ~|~ ~ ~ ~ ~ ~|
 [F,A,][F,B,][F,A,][B,,D] [C,C]2 [C,B,]2 | [F,A,]6 || F,[F,G,] | %10
w: ~ ~ ~ ~ ~ ~|~|~ ~|
 [F,A,]2 [F,C][F,C] [F,C][F,C][F,C][F,B,] | [F,A,]2 [C,B,][C,B,] [F,A,]2 [F,A,][F,B,] | %12
w: ~ ~ ~ ~ ~ ~ ~|~ for He comes, ~ ~|
 [F,C]2 [F,A,][F,A,] [F,B,][F,A,][F,A,][F,C] | [C,C]2 [C,C][C,C] [C,C]2 F,[F,G,] | %14
w: ~ ~ ~ ~ ~ ~ ~|~ for He comes; ~ ~|
 [F,A,]2 [F,C][F,C] [F,C][F,C][F,C][F,B,] | [F,A,]2 [C,B,][C,B,] [F,A,]2 [F,A,][F,B,] | %16
w: ~ ~ ~ ~ ~ ~ ~|~ for He comes, ~ ~|
 [F,C]2 [F,A,][F,B,] [F,A,][E,B,][C,C][C,B,] | [F,A,]2 [B,,B,][B,,B,] [F,,A,]2 x4 |] %18
w: ~ ~ ~ ~ ~ ~ ~|~ by and by.|
V:4
 F, x | x7 F, | x8 | x8 | x6 F, x | x7 F, | x6 F, x | x8 | x6 || F, x | x8 | x8 | x8 | x6 F, x | %14
 x8 | x8 | x8 | x10 |] %18

